austria/municipalities/70310.svg

<?xml version="1.0" encoding="UTF-8"?>
<!DOCTYPE svg PUBLIC "-//W3C//DTD SVG 1.1//EN" "http://www.w3.org/Graphics/SVG/1.1/DTD/svg11.dtd">
<svg xmlns="http://www.w3.org/2000/svg" version="1.1" width="166px" height="192px" style="shape-rendering:geometricPrecision; text-rendering:geometricPrecision; image-rendering:optimizeQuality; fill-rule:evenodd; clip-rule:evenodd" xmlns:xlink="http://www.w3.org/1999/xlink">
<g><path style="opacity:1" fill="#0b0908" d="M -0.5,-0.5 C 54.8333,-0.5 110.167,-0.5 165.5,-0.5C 165.5,38.8333 165.5,78.1667 165.5,117.5C 158.046,158.288 134.046,182.954 93.5,191.5C 86.1667,191.5 78.8333,191.5 71.5,191.5C 42.0929,185.699 20.5929,169.366 7,142.5C 3.53547,133.628 1.03547,124.628 -0.5,115.5C -0.5,76.8333 -0.5,38.1667 -0.5,-0.5 Z"/></g>
<g><path style="opacity:1" fill="#fefefe" d="M 3.5,3.5 C 39.1682,3.33335 74.8349,3.50001 110.5,4C 91.534,20.6309 72.8673,37.6309 54.5,55C 41.5,55.3333 28.5,55.6667 15.5,56C 22.5,60.8333 29.5,65.6667 36.5,70.5C 26.1433,81.0237 15.3099,91.0237 4,100.5C 3.50002,68.1684 3.33335,35.8351 3.5,3.5 Z"/></g>
<g><path style="opacity:1" fill="#d63123" d="M 144.5,3.5 C 149.64,4.48808 154.974,4.82141 160.5,4.5C 160.181,9.36329 160.514,14.03 161.5,18.5C 161.667,35.5033 161.5,52.5033 161,69.5C 138.275,89.7312 115.442,109.731 92.5,129.5C 95.6979,115.709 99.3645,102.042 103.5,88.5C 104.833,88.5 106.167,88.5 107.5,88.5C 107.5,87.1667 107.5,85.8333 107.5,84.5C 121.644,75.2575 135.644,65.7575 149.5,56C 135.504,55.5001 121.504,55.3334 107.5,55.5C 106.833,55.5 106.167,55.5 105.5,55.5C 90.1667,55.5 74.8333,55.5 59.5,55.5C 58.8333,55.5 58.1667,55.5 57.5,55.5C 57.0618,55.5654 56.7284,55.3988 56.5,55C 74.8673,37.6309 93.534,20.6309 112.5,4C 123.161,3.50016 133.828,3.3335 144.5,3.5 Z"/></g>
<g><path style="opacity:1" fill="#82271b" d="M 144.5,3.5 C 150.167,3.5 155.833,3.5 161.5,3.5C 161.5,8.5 161.5,13.5 161.5,18.5C 160.514,14.03 160.181,9.36329 160.5,4.5C 154.974,4.82141 149.64,4.48808 144.5,3.5 Z"/></g>
<g><path style="opacity:1" fill="#e2e1e1" d="M 57.5,55.5 C 58.1667,55.5 58.8333,55.5 59.5,55.5C 59.5,65.8333 59.5,76.1667 59.5,86.5C 74.8333,86.5 90.1667,86.5 105.5,86.5C 105.5,76.1667 105.5,65.8333 105.5,55.5C 106.167,55.5 106.833,55.5 107.5,55.5C 107.5,65.1667 107.5,74.8333 107.5,84.5C 107.5,85.8333 107.5,87.1667 107.5,88.5C 106.167,88.5 104.833,88.5 103.5,88.5C 89.5,88.5 75.5,88.5 61.5,88.5C 60.1667,88.5 58.8333,88.5 57.5,88.5C 57.5,87.1667 57.5,85.8333 57.5,84.5C 57.5,74.8333 57.5,65.1667 57.5,55.5 Z"/></g>
<g><path style="opacity:1" fill="#000000" d="M 59.5,55.5 C 74.8333,55.5 90.1667,55.5 105.5,55.5C 105.5,65.8333 105.5,76.1667 105.5,86.5C 90.1667,86.5 74.8333,86.5 59.5,86.5C 59.5,76.1667 59.5,65.8333 59.5,55.5 Z"/></g>
<g><path style="opacity:1" fill="#030101" d="M 107.5,55.5 C 121.504,55.3334 135.504,55.5001 149.5,56C 135.644,65.7575 121.644,75.2575 107.5,84.5C 107.5,74.8333 107.5,65.1667 107.5,55.5 Z"/></g>
<g><path style="opacity:1" fill="#fdfdfd" d="M 78.5,146.5 C 79.5421,151.675 81.0421,156.675 83,161.5C 85.5383,152.886 87.8717,144.219 90,135.5C 90.6622,134.016 91.4955,132.683 92.5,131.5C 115.442,111.731 138.275,91.7312 161,71.5C 161.667,85.8333 161.667,100.167 161,114.5C 153.762,160.07 127.095,184.403 81,187.5C 67.5524,186.961 55.0524,183.294 43.5,176.5C 53.9574,167.212 64.2907,157.712 74.5,148C 75.745,147.209 77.0783,146.709 78.5,146.5 Z"/></g>
<g><path style="opacity:1" fill="#d73123" d="M 57.5,84.5 C 57.5,85.8333 57.5,87.1667 57.5,88.5C 58.8333,88.5 60.1667,88.5 61.5,88.5C 66.6753,106.866 72.0086,125.199 77.5,143.5C 77.1373,144.183 76.8039,144.85 76.5,145.5C 64.8528,155.477 53.1862,165.477 41.5,175.5C 15.7774,158.057 3.27735,133.723 4,102.5C 15.466,92.7025 26.6327,82.5358 37.5,72C 44.2009,75.8181 50.8676,79.9848 57.5,84.5 Z"/></g>
<g><path style="opacity:1" fill="#030201" d="M 61.5,88.5 C 75.5,88.5 89.5,88.5 103.5,88.5C 99.3645,102.042 95.6979,115.709 92.5,129.5C 91.1667,130.167 91.1667,130.833 92.5,131.5C 91.4955,132.683 90.6622,134.016 90,135.5C 87.8717,144.219 85.5383,152.886 83,161.5C 81.0421,156.675 79.5421,151.675 78.5,146.5C 78.1583,145.662 77.4916,145.328 76.5,145.5C 76.8039,144.85 77.1373,144.183 77.5,143.5C 72.0086,125.199 66.6753,106.866 61.5,88.5 Z"/></g>
<g><path style="opacity:1" fill="#fdfcfc" d="M -0.5,115.5 C 1.03547,124.628 3.53547,133.628 7,142.5C 20.5929,169.366 42.0929,185.699 71.5,191.5C 47.5,191.5 23.5,191.5 -0.5,191.5C -0.5,166.167 -0.5,140.833 -0.5,115.5 Z"/></g>
<g><path style="opacity:1" fill="#fdfdfd" d="M 165.5,117.5 C 165.5,142.167 165.5,166.833 165.5,191.5C 141.5,191.5 117.5,191.5 93.5,191.5C 134.046,182.954 158.046,158.288 165.5,117.5 Z"/></g>
</svg>

<svg xmlns="http://www.w3.org/2000/svg" width="166" height="192" style="shape-rendering:geometricPrecision;text-rendering:geometricPrecision;image-rendering:optimizeQuality;fill-rule:evenodd;clip-rule:evenodd"><path style="opacity:1" fill="#0b0908" d="M-.5-.5h166v118c-7.454 40.788-31.454 65.454-72 74h-22c-29.407-5.801-50.907-22.134-64.5-49-3.465-8.872-5.965-17.872-7.5-27V-.5z"/><path style="opacity:1" fill="#fefefe" d="M3.5 3.5c35.668-.167 71.335 0 107 .5a2015.483 2015.483 0 0 0-56 51l-39 1 21 14.5a460.721 460.721 0 0 1-32.5 30c-.5-32.332-.667-64.665-.5-97z"/><path style="opacity:1" fill="#d63123" d="M144.5 3.5c5.14.988 10.474 1.321 16 1-.319 4.863.014 9.53 1 14 .167 17.003 0 34.003-.5 51a5633.442 5633.442 0 0 1-68.5 60 619.364 619.364 0 0 1 11-41h4v-4a1460.91 1460.91 0 0 0 42-28.5 882.407 882.407 0 0 0-42-.5h-50c-.438.065-.772-.101-1-.5a2015.483 2015.483 0 0 1 56-51c10.661-.5 21.328-.667 32-.5z"/><path style="opacity:1" fill="#82271b" d="M144.5 3.5h17v15c-.986-4.47-1.319-9.137-1-14-5.526.321-10.86-.012-16-1z"/><path style="opacity:1" fill="#e2e1e1" d="M57.5 55.5h2v31h46v-31h2v33h-50v-33z"/><path style="opacity:1" d="M59.5 55.5h46v31h-46v-31z"/><path style="opacity:1" fill="#030101" d="M107.5 55.5c14.004-.167 28.004 0 42 .5a1460.91 1460.91 0 0 1-42 28.5v-29z"/><path style="opacity:1" fill="#fdfdfd" d="M78.5 146.5a83.793 83.793 0 0 0 4.5 15 571.126 571.126 0 0 0 7-26 16.57 16.57 0 0 1 2.5-4 5633.442 5633.442 0 0 0 68.5-60 462.27 462.27 0 0 1 0 43c-7.238 45.57-33.905 69.903-80 73-13.448-.539-25.948-4.206-37.5-11a1231.384 1231.384 0 0 0 31-28.5 10.136 10.136 0 0 1 4-1.5z"/><path style="opacity:1" fill="#d73123" d="M57.5 84.5v4h4a3399.98 3399.98 0 0 0 16 55c-.363.683-.696 1.35-1 2a74210.28 74210.28 0 0 0-35 30c-25.723-17.443-38.223-41.777-37.5-73A721.122 721.122 0 0 0 37.5 72a295.6 295.6 0 0 1 20 12.5z"/><path style="opacity:1" fill="#030201" d="M61.5 88.5h42a619.364 619.364 0 0 0-11 41c-1.333.667-1.333 1.333 0 2a16.57 16.57 0 0 0-2.5 4 571.126 571.126 0 0 1-7 26 83.793 83.793 0 0 1-4.5-15c-.342-.838-1.008-1.172-2-1 .304-.65.637-1.317 1-2a3399.98 3399.98 0 0 1-16-55z"/><path style="opacity:1" fill="#fdfcfc" d="M-.5 115.5c1.535 9.128 4.035 18.128 7.5 27 13.593 26.866 35.093 43.199 64.5 49h-72v-76z"/><path style="opacity:1" fill="#fdfdfd" d="M165.5 117.5v74h-72c40.546-8.546 64.546-33.212 72-74z"/></svg>
